X:1
T:Title
%%score { 1 | ( 2 3 4 ) }
L:1/8
M:2/4
K:G
V:1 treble nm="Grand Piano"
V:2 treble 
V:3 treble 
V:4 treble 
V:1
 z2 z[Q:1/4=88] D | G/A/B AA | d2 BA | G/A/[DGB] [^CGA][CGA] | [DFA]3 .[B,FB] | %5
 [B,G].[G,DG] [G,CE][^G,DE] | [^CA]>[EG] FF | E/F/[B,EG] [^CF][K:bass][G,CE] | [F,D]3[K:treble] D | %9
 cB AB/c/ | B2 GG | FG c[DB] | [GB]2 A[DFA] | B>A Gd | [^Ge]>[Bd] [Ac][Ac] | B/d/B [G^c][Gc] | %16
[M:3/8] [Fd]3 |[M:1/8] z |[M:2/4] z [A,F] .[CFA]2 | z [B,G] [GB][Gd] | [^Ge]>[EBd] [EAc][EA^c] | %21
 [DAd]>[DFc] [DGB][DGB] | [^CGA][CGB] [CGA][CGB] | [DFA][DFd] [DGd][EGc] | %24
 [GB]/c/[DGB] .[CFA][CDA] |[M:3/8] [G,B,DG]3 |] %26
V:2
 z2 z [G,B,] | [G,D]/-[G,CD]/[G,DG] [CDF][CDF] | [B,DG]2 [G,DG][K:bass][F,CD] | .B,2 z2 | %4
 D,3 z/ A/ | .E,>F C,B,, | [A,,E,A,]>[A,,A,] [D,A,D][D,A,D] | .[G,B,]2 z2 | D,3 F, | %9
 [EF][DF] [CF]F/-[EF]/ | [DG]2 [B,D][B,D] | [CD][K:bass][B,D] [A,D]G,/B,/ | D4[K:treble] | %13
 [G,DG]>[G,CD] [G,B,D][G,B,G] | [E,B,]>[^G,E] [A,E][F,D] | .D2[K:bass] z2 |[M:3/8] [D,A,]3 | %17
[M:1/8][K:treble] d |[M:2/4] d2[K:bass] z2[K:treble] | d2 z2 | [E,B,]>^G, A,=G, | F,>D, G,G, | %22
 E,A,, E,A,, | D,C, B,,C, | z/ A/D, z/ D/D, |[M:3/8] G,,3 |] %26
V:3
 x4 | .B,2 z2 | x3[K:bass] x | [G,D]/-[G,CD]/G, E,A, | z2 z ^D, | z B,, z2 | x4 | D/^D/E, A,A,, | %8
 x4 | z2 z .D | x4 | x[K:bass] x3 | z2[K:treble] FD, | x4 | x4 | %15
 [G,G]/-[G,EG]/[G,DG][K:bass] [E,A,][E,A,] |[M:3/8] x3 |[M:1/8][K:treble] x | %18
[M:2/4] z[K:bass] z/ A/ D,[K:treble]d | z G, [G,D][G,B,] | x4 | x4 | x4 | x4 | .[D,D]2 .D,2 | %25
[M:3/8] x3 |] %26
V:4
 x4 | x4 | x3[K:bass] x | x4 | x4 | x4 | x4 | x4 | x4 | x4 | x4 | x[K:bass] x3 | x2[K:treble] x2 | %13
 x4 | x4 | x2[K:bass] x2 |[M:3/8] x3 |[M:1/8][K:treble] x |[M:2/4] z[K:bass] D, z2[K:treble] | x4 | %20
 x4 | x4 | x4 | x4 | x4 |[M:3/8] x3 |] %26

